material/.icons/material/download-network.svg

<svg xmlns="http://www.w3.org/2000/svg" viewBox="0 0 24 24"><path d="M17 3a2 2 0 012 2v10a2 2 0 01-2 2h-4v2h1a1 1 0 011 1h7v2h-7a1 1 0 01-1 1h-4a1 1 0 01-1-1H2v-2h7a1 1 0 011-1h1v-2H7a2 2 0 01-2-2V5a2 2 0 012-2h10m-5 11.5l4.5-4.5H13V6h-2v4H7.5l4.5 4.5z"/></svg>

<?xml version="1.0" encoding="UTF-8"?><!DOCTYPE svg PUBLIC "-//W3C//DTD SVG 1.1//EN" "http://www.w3.org/Graphics/SVG/1.1/DTD/svg11.dtd"><svg xmlns="http://www.w3.org/2000/svg" xmlns:xlink="http://www.w3.org/1999/xlink" version="1.1" id="mdi-download-network" width="24" height="24" viewBox="0 0 24 24"><path d="M17,3A2,2 0 0,1 19,5V15A2,2 0 0,1 17,17H13V19H14A1,1 0 0,1 15,20H22V22H15A1,1 0 0,1 14,23H10A1,1 0 0,1 9,22H2V20H9A1,1 0 0,1 10,19H11V17H7C5.89,17 5,16.1 5,15V5A2,2 0 0,1 7,3H17M12,14.5L16.5,10H13V6H11V10H7.5L12,14.5Z" /></svg>
